src/assets/img/contact/linkedin.svg

<svg width="63" height="63" viewBox="0 0 63 63" fill="none" xmlns="http://www.w3.org/2000/svg">
<path d="M57.4822 1.00055H5.49875C4.91463 0.99384 4.33492 1.10225 3.7927 1.31959C3.25048 1.53694 2.75638 1.85896 2.33863 2.26726C1.92087 2.67557 1.58764 3.16217 1.35796 3.69927C1.12827 4.23637 1.00664 4.81345 1 5.39756V57.5897C1.00498 58.1749 1.12539 58.7534 1.35433 59.2919C1.58327 59.8305 1.91624 60.3186 2.33417 60.7283C2.75209 61.1379 3.24674 61.4611 3.78978 61.6792C4.33282 61.8973 4.91357 62.0062 5.49875 61.9995H57.4822C58.0684 62.0087 58.6507 61.9019 59.1955 61.6853C59.7404 61.4687 60.237 61.1466 60.6569 60.7373C61.0767 60.3281 61.4116 59.8399 61.6421 59.3008C61.8726 58.7617 61.9942 58.1824 62 57.5961V5.39756C61.9934 4.81182 61.8711 4.23317 61.6402 3.69481C61.4094 3.15645 61.0744 2.66899 60.6546 2.26044C60.2349 1.85188 59.7385 1.53027 59.1941 1.31406C58.6497 1.09785 58.0679 0.991311 57.4822 1.00055ZM19.0713 52.9767H10.0229V23.8751H19.0713V52.9767ZM14.5471 19.8912C13.1562 19.8895 11.8228 19.3358 10.8399 18.3517C9.85699 17.3676 9.3049 16.0336 9.3049 14.6427C9.3049 13.2524 9.8572 11.9191 10.8403 10.936C11.8234 9.9529 13.1568 9.40061 14.5471 9.40061C15.236 9.39978 15.9184 9.53475 16.5551 9.79782C17.1919 10.0609 17.7705 10.4469 18.258 10.9337C18.7454 11.4206 19.1321 11.9988 19.396 12.6352C19.6598 13.2716 19.7956 13.9538 19.7956 14.6427C19.7956 16.0314 19.2453 17.3635 18.2651 18.3472C17.2849 19.3309 15.9548 19.8861 14.5662 19.8912H14.5471ZM52.9771 52.9767H43.9351V38.8199C43.9351 35.4459 43.8779 31.0997 39.233 31.0997C34.5881 31.0997 33.8066 34.7787 33.8066 38.5784V52.9767H24.79V23.8751H33.4634V27.8528H33.5842C34.4547 26.369 35.7105 25.1485 37.2185 24.3207C38.7265 23.4929 40.4304 23.0886 42.1496 23.1508C51.3059 23.1508 52.9961 29.1744 52.9961 37.0153L52.9771 52.9767Z" stroke="#FFA800" stroke-width="2" stroke-linejoin="round"/>
</svg>

<?xml version="1.0" encoding="utf-8"?>
<!-- Generator: Adobe Illustrator 26.0.1, SVG Export Plug-In . SVG Version: 6.00 Build 0)  -->
<svg version="1.1" id="Layer_1" xmlns="http://www.w3.org/2000/svg" xmlns:xlink="http://www.w3.org/1999/xlink" x="0px" y="0px"
	 viewBox="0 0 63 63" style="enable-background:new 0 0 63 63;" xml:space="preserve">
<style type="text/css">
	.st0{fill:none;stroke:#FFFFFF;stroke-width:2;stroke-linejoin:round;}
</style>
<path class="st0" d="M57.5,1h-52C4.9,1,4.3,1.1,3.8,1.3c-0.5,0.2-1,0.5-1.5,0.9c-0.4,0.4-0.8,0.9-1,1.4C1.1,4.2,1,4.8,1,5.4v52.2
	c0,0.6,0.1,1.2,0.4,1.7c0.2,0.5,0.6,1,1,1.4c0.4,0.4,0.9,0.7,1.5,1C4.3,61.9,4.9,62,5.5,62h52c0.6,0,1.2-0.1,1.7-0.3
	c0.5-0.2,1-0.5,1.5-0.9c0.4-0.4,0.8-0.9,1-1.4c0.2-0.5,0.4-1.1,0.4-1.7V5.4c0-0.6-0.1-1.2-0.4-1.7c-0.2-0.5-0.6-1-1-1.4
	c-0.4-0.4-0.9-0.7-1.5-0.9S58.1,1,57.5,1z M19.1,53h-9V23.9h9V53z M14.5,19.9c-1.4,0-2.7-0.6-3.7-1.5c-1-1-1.5-2.3-1.5-3.7
	c0-1.4,0.6-2.7,1.5-3.7s2.3-1.5,3.7-1.5c0.7,0,1.4,0.1,2,0.4c0.6,0.3,1.2,0.6,1.7,1.1c0.5,0.5,0.9,1.1,1.1,1.7
	c0.3,0.6,0.4,1.3,0.4,2c0,1.4-0.6,2.7-1.5,3.7S16,19.9,14.5,19.9L14.5,19.9z M53,53h-9V38.8c0-3.4-0.1-7.7-4.7-7.7s-5.4,3.7-5.4,7.5
	V53h-9V23.9h8.7v4h0.1c0.9-1.5,2.1-2.7,3.6-3.5c1.5-0.8,3.2-1.2,4.9-1.2c9.2,0,10.8,6,10.8,13.9L53,53z"/>
</svg>
